!!!!SEGMENT: pl-wtm--r-2028--pc1_smietanski-emil-wladyslaw--souvenir-de-vienne-no-4-pc1.krn
!!!id: 18xx:2007
!!!COM: Śmietański, Emil Władysław
!!!COM-rism: pe50041781
!!!CDT: 1845-1886
!!!CNT: Polish
!!!OTL: Souvenir de Vienne – No 4
!!!PDT: 1869
!!!SMS-siglum: PL-Wtm
!!!SMS-shelfmark: R 2028
!!!NIFC-rismID: 1001112992
!!!URL-scan: http://repozytorium.nifc.pl/skany/pl-wtm-nut--r2028
!!!ONB-nifc:
!!!SMS-variant:
!!!SMS-altvar:
**kern	**kern	**dynam
*part1	*part1	*part1
*staff2	*staff1	*
*I"Fortepian	*I"Fortepian	*
*I'pf	*I'pf	*
*clefF4	*clefG2	*
*k[]	*k[]	*
*M3/4	*M3/4	*
*>[A,B,B1,B,B2,C]	*>[A,B,B1,B,B2,C]	*>[A,B,B1,B,B2,C]
=1	=1	=1
*>A	*>A	*>A
4E 4GG 4CC\	4r	mf
8G'\L	4cc 4g 4e 4c\	.
8c'\J	.	.
4e'\	4cc 4g\	.
=2	=2	=2
4GG\	4b 4gM</	.
4B 4D\	8f'/L	.
.	8d'/J	.
4f 4B\	4G/	.
=3	=3	=3
4GG\	4r	.
8G'\L	4b 4g 4B\	.
8d'\J	.	.
4f'\	4b 4g\	.
=4	=4	=4
4E 4CC\	4cc 4gM</	.
4c 4G\	8e'/L	.
.	8c'/J	.
4e 4c\	4G'/	.
=5	=5	=5
4C\	4r	.
8G'\L	4ee 4cc 4e\	.
8c'\J	.	.
4g'\	4ee 4cc\	.
=6	=6	=6
4DD\	4dd 4ccM\	.
4c 4F#X\	8a'\L	.
.	8d'\J	.
4f#X 4c\	4A'/	.
=7	=7	=7
4GG\	4dd 4bm\	.
4B 4G\	8g'\L	.
.	8d'\J	.
4fn 4B\	4G'>/	.
!!LO:LB:g=original
=8	=8	=8
4E 4CC/	4cc 4gM\	.
4c 4G\	8e'\L	.
.	8c'\J	.
4e 4c\	4G/	.
=9	=9	=9
4E 4GG 4CC\	4r	.
8G'\L	4cc 4g 4e 4c\	.
8c'\J	.	.
4e'\	4cc 4g\	.
=10	=10	=10
4GG\	4b 4gM</	.
4B 4D\	8f'/L	.
.	8d'/J	.
4f 4B\	4G'/	.
=11	=11	=11
4GG\	4r	.
8G'\L	4b 4g 4B/	.
8B'\J	.	.
4f'\	4b 4g/	.
=12	=12	=12
4E 4CC\	4cc 4gM</	.
4c 4G\	8e'/L	.
.	8c'/J	.
4e 4c\	4G/	.
=13	=13	=13
4C\	4r	.
8G'\L	4ee 4cc\	.
8c'\J	.	.
4g\	4ee 4cc\	.
=14	=14	=14
4DD\	4dd 4ccM\	.
4c 4F#X\	8a'\L	.
.	8d'\J	.
4f#X 4c\	4A/	.
=15	=15	=15
4GG\	4dd 4bm\	.
4B 4G\	8g'\L	.
.	8d'\J	.
4fn 4B\	4G/	.
!!LO:LB:g=original
=16	=16	=16
*2\right	*2\right	*
2e 2G 2C\	2cc 2g 2c\	.
4r	4r	.
=17!|:	=17!|:	=17!|:
*>B	*>B	*>B
4G 4BB 4EE\	4ee 4b 4g 4e\	ff
*8ba	*	*
8EEE/L	8E</L	.
8FFF#X/	8F#X</	.
8GGG/	8G</	.
*X8ba	*	*
8FF#/J	8F#</J	.
=18	=18	=18
4FF#X 4FFF#X\	4F#X<m</	.
4EE 4EEE\	4E</	.
4EE 4EEE\	4E</	.
=19	=19	=19
4A 4E 4AA\	4cc 4a 4e 4c\	.
8AAL 8AAA\	8A</L	.
8BB 8BBB\	8B</	.
8C 8CC\	8c</	.
8BBJ 8BBB\	8B</J	.
=20	=20	=20
4BB 4BBB\	4B<m</	.
4AA 4AAA\	4A</	.
4AA 4AAA\	4A</	.
=21	=21	=21
4BB 4BBB\	4B<^^/	.
.	32qqa#X/	.
4d#X 4F#\	4b 4an\	.
*clefG2	*	*
.	32qqaa#X/	.
4dd#X 4f#\	4bb 4aan\	.
*clefF4	*	*
=22	=22	=22
4C 4CC\	4c<^^/	.
.	32qqb/	.
4d#X 4F#\	4cc 4a\	.
*clefG2	*	*
.	32qqbb/	.
4dd#X 4f#\	4ccc 4aa\	.
!!LO:LB:g=original
=23	=23	=23
*clefF4	*	*
4BB 4BBB\	4B<^^/	.
.	32qqa#X/	.
4d#X 4F#\	4b 4an\	.
*clefG2	*	*
.	32qqaa#X/	.
4dd#X 4f#\	4bb 4aan\	.
=24	=24	=24
*	*8va	*
.	32qqaaa#X/	.
4ddd#X 4ff#\	4bbb 4aaan\	.
*	*X8va	*
!	!LO:TX:a:t=loco	!
.	32qqaa#X/	.
4dd#X 4f#\	4bb 4aan\	.
.	32qqa#X/	.
4d#X 4F#\	4b 4an\	.
*clefF4	*	*
=25	=25	=25
4G 4BB 4EE\	4ee 4b 4g 4e\	ff
8EEL 8EEE\	8E</L	.
8FF#X 8FFF#X\	8F#X</	.
8GG 8GGG\	8G</	.
8FF#J 8FFF#\	8F#</J	.
=26	=26	=26
4FF#X 4FFF#X\	4F<M</	.
4EE 4EEE\	4E</	.
4EE 4EEE\	4E</	.
=27	=27	=27
4A 4E 4AA\	4cc 4a 4e 4c\	.
8AAL 8AAA\	8A</L	.
8BB 8BBB\	8B</	.
8C 8CC\	8c</	.
8BBJ 8BBB\	8B</J	.
=28	=28	=28
4BB 4BBB\	4B<m</	.
4AA 4AAA\	4A</	.
4AA 4AAA\	4A</	.
=29	=29	=29
4BB 4BBB\	4B<^^/	.
.	32qqa#X/	.
4d#X 4F#\	4b 4an\	.
*clefG2	*	*
.	32qqaa#X/	.
4dd#X 4f#\	4bb 4aan\	.
*clefF4	*	*
!!LO:LB:g=original
=30	=30	=30
4C 4CC\	4c\	.
.	16qqb/	.
4d# 4F#\	4cc 4a\	.
*clefG2	*	*
.	16qqbb/	.
4dd#X 4f#\	4ccc 4aa\	.
*clefF4	*	*
=31	=31	=31
4F#X 4BB\	4d#X 4A^^/	.
*clefG2	*	*
4ff#X 4b\	4ddd#X 4aa\	.
*clefF4	*	*
4F# 4BB\	4d# 4A/	.
=32	=32	=32
*	*Xtuplet	*
*	*rscale:1/2	*
2G 2BB 2EE\	18e\LLL	.
.	18g\	.
.	18b\	.
*	*8va	*
.	18ee\	.
.	18gg\	.
.	18bb\	.
.	18eee\	.
.	18ggg\	.
.	18bbb\JJJ	.
*	*rscale:1	*
!	!LO:TX:t=P:problem:brak wpisanej pauzy lub dziewięciola powinna być szesnastkowa	!
4r	4eeee\	.
*	*X8va	*
=33||	=33||	=33||
!	!LO:TX:t=P:problem:p(iano)=p.:global	!
!	!LO:TX:a:t=loco	!
4E 4GG 4CC\	4r	p
8G\L	4cc 4g 4c\	.
8c\J	.	.
4e\	4cc 4g\	.
=34	=34	=34
4GG\	4b 4gM</	.
4B 4D\	8f/L	.
.	8dJ/	.
4f 4B\	4G/	.
=35	=35	=35
4GG\	4r	.
8G\L	4b 4g 4B\	.
8d\J	.	.
4f\	4b 4g\	.
!!LO:LB:g=original
=36	=36	=36
4E 4CC\	4cc 4gM</	.
4c 4G\	8e/L	.
.	8c/J	.
4e 4c\	4G/	.
=37	=37	=37
4C\	4r	.
8G\L	4ee 4cc 4e\	.
8c\J	.	.
4g\	4ee 4cc\	.
=38	=38	=38
4DD/	4dd 4ccM\	.
4c 4F#X\	8a\L	.
.	8d\J	.
4f#X 4c\	4A/	.
=39	=39	=39
4GG\	4dd 4bm\	.
4B 4G\	8g\L	.
.	8d\J	.
4fn 4B\	4G/	.
=40	=40	=40
4E 4CC\	4cc 4gM\	.
4c 4G\	8e\L	.
.	8c\J	.
4e 4c\	4G\	.
=41	=41	=41
4E 4GG 4CC\	4r	.
8G\L	4cc 4g 4e 4c\	.
8c\J	.	.
4e\	4cc 4g\	.
=42	=42	=42
4GG\	4b 4gM\	.
4B 4D\	8f\L	.
.	8dJ\	.
4f 4B\	4G\	.
=43	=43	=43
4GG\	4r	.
8G\L	4b 4g 4B\	.
8d\J	.	.
4f\	4b 4g\	.
!!LO:LB:g=original
=44	=44	=44
4E 4CC\	4cc 4gM</	.
4c 4G\	8e/L	.
.	8c/J	.
4e 4c\	4G/	.
=45	=45	=45
4C\	4r	.
8G\L	4ee 4cc 4e\	.
8c\J	.	.
4g\	4ee 4cc\	.
=46	=46	=46
4DD\	4dd 4ccM\	.
4c 4F#X\	8a\L	.
.	8d\J	.
4f# 4c\	4A/	.
=47	=47	=47
4GG\	4dd 4bm\	.
4B 4G\	8g\L	.
.	8d\J	.
4fn 4B\	4G/	.
=48	=48	=48
!LO:TX:a:t=I	!	!
*>B1	*>B1	*>B1
2e 2G 2C\	2cc 2g 2c\	.
4r	4r	.
=49:|!	=49:|!	=49:|!
*>B2	*>B2	*>B2
2e 2G 2C\	2cc 2g 2c\	.
4r	4b-X\	.
!!LO:PB:g=original
=50	=50	=50
*>C	*>C	*>C
*k[b-]	*k[b-]	*
4A 4FF\	(>4a 4f^^/	.
4c\	4A/)	.
4f\	4r	.
=51	=51	=51
4B- 4GG\	(>4b- 4f^^/	.
4c\	4B-/)	.
!	!LO:TX:b:t=cresc...:ext=ut:problem:dynamics with extention lines	!LO:DY:t=cresc...
4f\	4r	<
=52	=52	=52
4Bn 4GG#X\	(>4bn 4f^^/	.
4c\	4Bn/)	.
4f\	4r	.
=53	=53	=53
4c 4AA\	(>4cc 4f^^/	.
4c\	4c/)	.
4f\	4r	[
=54	=54	=54
4F 4DD\	8r	.
!	!	!LO:DY:rj
.	8ff 8dd\	p
4A\	4a 4f\	.
4d\	4a 4f\	.
=55	=55	=55
4F 4CC\	8r	.
.	8cc 8a\	.
4A\	4f 4c\	.
4c\	4f 4c\	.
=56	=56	=56
4CC\	8r	.
.	(8Bn/	.
4Bn 4D\	8aL 8f\	.
.	8g\	.
4e 4B- 4C\	8ee 8b-X\	.
.	8aa\J)	.
!!LO:LB:g=original
=57	=57	=57
4A 4C 4FF\	8ffL 8a 8f'\	.
.	8fff 8aa'\	.
4f 4A\	8ccc 8aa'\	.
.	8aa 8ff'\	.
4f 4c\	8ff 8cc'\	.
.	8ccJ 8a'\	.
=58	=58	=58
4A 4FF\	(>4a 4f^^/	.
4c\	4A/)	.
4f\	4r	.
=59	=59	=59
4B- 4GG\	(>4b- 4f^^/	.
4c\	4B-/)	.
4f\	4r	.
=60	=60	=60
4Bn 4GG#X\	(>4bn 4f^^/	.
4c\	4Bn/)	.
4f\	4r	.
=61	=61	=61
4c 4AA\	(>4cc 4f^^/	.
4c\	4c/)	.
4f\	4r	.
=62	=62	=62
4F 4DD\	8r	.
.	8ff 8dd\	.
4A\	4a 4f\	.
4d\	4a 4f\	.
=63	=63	=63
4E 4EE\	8r	.
.	8cc 8a\	.
4A\	4e 4c/	.
4c\	4e 4c/	.
!!LO:LB:g=original
=64	=64	=64
4EE\	8r	.
.	8d#X/	p
4d# 4F\	8ccL 8a\	.
.	8bn\J	.
4g#X 4d 4E\	8gg#XL 8dd\	.
.	8eee\J	.
=65	=65	=65
4c 4E 4AA\	8aaL 8cc 8a\	.
.	8eee\J	.
*	*8va	*
4a\	8aaaL 8ccc\	.
.	8eeee\J	.
4r	4aaaa\	.
*	*X8va	*
=66||	=66||	=66||
4A 4FF\	(>4a 4f^^/	.
4c\	4A/)	.
4f\	4r	.
=67	=67	=67
4B- 4GG\	(>4b- 4f^^/	.
4c\	4B-/)	.
4f\	4r	.
=68	=68	=68
4Bn 4GG#X\	(>4bn 4f^^/	.
4c\	4Bn/)	.
4f\	4r	.
=69	=69	=69
4c 4AA\	(>4cc 4f^^/	.
4c\	4c/)	.
4f\	4r	.
=70	=70	=70
4F 4DD\	32ffLLL 32a-X 32f\	p
.	32bn\	.
.	32cc\	.
.	32b\JJJ	.
!	!LO:N:vis=2.	!
.	2btt\	.
4A-X\	.	.
4d 4Bn\	.	.
.	8ryy	.
!!LO:LB:g=original
=71	=71	=71
4F 4CC\	32ccLLL 32a 32c\	.
.	32f\	.
.	32g\	.
.	32f\JJJ	.
!	!LO:N:vis=2.	!
.	2fTT\	.
4A\	.	.
4c\	.	.
.	8ryy	.
=72	=72	=72
4CC\	8c\L	.
.	8eJ 8d-X\	.
4B-\	8eL 8d-'\	.
!	!LO:TX:b:i:t=con bravura.	!
.	8ee 8dd-X'\	.
4B- 4G 4C\	8eee 8ddd-X'\	.
.	8eeJ 8dd-'\	.
=73	=73	=73
4A 4FF\	8ffL 8cc'\	.
.	8fJ 8c'\	.
4c 4A\	8ffL 8cc'\	.
.	8fffJ 8ccc\	.
*	*8va	*
4f 4A\	4ffff 4cccc\	.
*	*X8va	*
=74	=74	=74
4A 4FF\	(16a/LL	<
.	16f/JJ)	.
.	8r	.
4c\	(16g#X/LL	.
.	16e/JJ)	.
.	8r	.
4f\	(16a/LL	.
.	16f/JJ)	.
.	8r	.
=75	=75	=75
4B- 4GG\	16b-/LL	.
.	16g/JJ	.
.	8r	.
4c\	16a/LL	.
.	16f#X/JJ	.
.	8r	.
4f\	16b-/LL	.
.	16g/JJ	.
.	8r	.
=76	=76	=76
4Bn 4GG#X\	16bn/LL	.
.	16g#X/JJ	.
.	8r	.
4c\	16b-X/LL	.
.	16gn/JJ	.
.	8r	.
4f\	16bn/LL	[
.	16g#X/JJ	.
.	8r	.
!!LO:LB:g=original
=77	=77	=77
4c 4AA\	16cc/LL	.
.	16a/JJ	.
.	8r	.
4c\	16bn/LL	.
.	16g#X/JJ	.
.	8r	.
4f\	16cc/LL	.
.	16a/JJ	.
.	8r	.
=78	=78	=78
4F 4DD\	16ff\LL	>
.	16dd\	.
.	16ff\	.
.	16dd\JJ	.
4A\	16ee\LL	.
.	16cc#X\	.
.	16ee\	.
.	16cc#\JJ	.
4d\	16ee-X\LL	.
.	16ccn\	.
.	16ee-\	.
.	16cc\JJ	.
=79	=79	=79
4F 4CC\	16dd\LL	.
.	16bn\	.
.	16dd\	.
.	16b\JJ	.
4A\	16dd-X\LL	.
.	16b-X\	.
.	16dd-\	.
.	16b-\JJ	.
4c\	16cc\LL	.
.	16a\	.
.	16cc\	.
.	16a\JJ	]
=80	=80	=80
4CC\	20c/LL	.
.	20Bn/	.
.	20d/	p
.	20f/	.
.	20a/JJ	.
!	!LO:TX:a:i:t=gliss.	!
4G 4F\	32g\LLL	.
.	32a\	.
.	32bn\	.
.	32cc\	.
.	32dd\	.
.	32ee\	.
.	32ff\	.
.	32gg\JJJ	.
4e 4B- 4C\	16cc\LL	.
.	16gg\	.
.	16ccc\	.
.	16eee\JJ	.
=81	=81	=81
4A 4C 4FF\	16fff\LL	.
.	16ccc\	.
.	16ff\	.
.	16cc\JJ	.
!	!LO:TX:a:i:t=gliss.	!
4c\	84f\LLLLL	.
.	84g\	.
.	84a\	.
.	84bn\	.
.	84cc\	.
.	84dd\	.
.	84ee\	.
.	84ff\	.
.	84gg\	.
.	84aa\	.
.	84bbn\	.
.	84ccc\	.
.	84ddd\	.
.	84eee\	.
.	84fff\	.
*	*8va	*
.	84ggg\	.
.	84aaa\	.
.	84bbbn\	.
.	84cccc\	.
.	84dddd\JJJJ	.
.	84eeee\J	.
4f 4A\	4ffff\	.
*	*X8va	*
!!LO:LB:g=original
=82	=82	=82
4F 4AA 4DD\	16aaaLL 16fff\	>
.	16ggg#X 16eee\	.
.	16gggn 16eee-X\	.
.	16fff#X 16ddd\	.
4d\	16fffn 16ddd-X\	.
!	!LO:SIC:v:n=1:s=16eeen	!
.	16eee- 16ccc\	.
!	!LO:SIC:v:n=2:s=16bbn	!
.	16ddd#X 16bb-\	.
.	16dddn 16bb-X\	.
4f 4A\	16ccc#X 16aa\	.
.	16cccn 16aa-X\	.
!	!LO:SIC:v:n=1:s=16bbn	!
.	16bb- 16gg\	.
!	!LO:SIC:v:n=2:s=16ff#	!
.	16aa#XJJ 16ff\	.
=83	=83	=83
4GG\	16aanLL 16ffn\	]
.	16gg#X 16ee\	.
.	16ggn 16ee-X\	.
.	16ff#X 16dd\	.
4Bn\	16ffn 16dd-X\	.
.	16ee- 16cc\	.
!	!LO:SIC:v:n=2:s=16bn	!
.	16dd#X 16b-\	.
.	16ddn 16b-X\	.
4f 4G 4F\	16cc#X 16a\	.
.	16ccn 16a-X\	.
!	!LO:SIC:v:n=1:s=16bn	!
.	16b- 16g\	.
.	16a#XJJ 16f#X\	.
=84	=84	=84
4C 4CC\	16aLL 16fn/	f
.	16g/	.
.	16c/	.
.	16G/JJ	.
4G 4F\	16c/LL	.
.	16g 16f/	.
.	16cc/	.
.	16ggJJ 16ff/	.
4r	16ccc\LL	.
.	16gg 16ff\	.
.	16cc\	.
.	16gJJ 16f\	.
.	.	<
=85	=85	=85
4C 4CC\	16aLL 16fn/	.
.	16g/	.
.	16c/	.
.	16G/JJ	.
4G 4F\	16c/LL	.
.	16g 16f/	.
.	16cc/	.
.	16ggJJ 16ff/	.
4r	16ccc\LL	.
.	16gg 16ff\	.
.	16cc\	.
.	16gJJ 16f\	.
!!LO:LB:g=original
=86	=86	=86
8C 8CC\	16c\LL	.
.	16ccJJ 16g 16e\	.
*clefG2	*tremolo	*
!	!LO:TX:a:i:t=lungo	!
!	!LO:TX:t=P:problem:mixed beam	!
8ryy	32dd-X<LLL 32b-</	<
.	32cc 32g 32e\	.
.	32dd-< 32b-</	.
.	32cc 32g 32e\	.
2ryy	32dd-< 32b-</	.
.	32cc 32g 32e\	.
.	32dd-< 32b-</	.
.	32cc 32g 32e\	[
.	32dd-< 32b-</	>
.	32cc 32g 32e\	.
.	32dd<- 32b-</	.
.	32cc 32g 32e\	.
.	32dd-< 32b-</	.
.	32cc 32g 32e\	.
.	32dd-< 32b-</	.
.	32ccJJJ 32g 32e\	]
!	!LO:TX:b:i:t=rit.	!
.	16bn\LL	.
.	16ccJJ 16g 16e\	.
=87	=87	=87
!LO:CL:ed	!	!
*clefF4	*	*
!LO:N:vis=4	!	!
8e: 8B-: 8C:\	8aa: 8ee: 8b-:|\	.
8r	8r	.
4r;	4r;	.
8r	8r	.
8r	8gg\	.
=88	=88	=88
4FF\	4ff 4a\	p
4A 4C\	8c</L	.
.	8F</J	.
!LO:TX:b:i:t=md	!LO:TX:b:i:t=ms.	!
4C\	4c< 4A</	.
=89	=89	=89
4FF^^\	4r	sf
8F\L	4cc 4f 4A\	.
8c\J	.	.
4f\	4cc 4A\	.
=90	=90	=90
!	!	!LO:HP:t=dim.
4FF#X\	4r	>
4A 4C\	8c</L	.
!	!LO:TX:b:i:t=rit.-:dur=3e:ext=cd:problem:tekst with extention lines	!
.	8E-X</J	.
!LO:TX:a:i:t=ms.	!	!
4c 4A\	4C</	.
=91	=91	=91
4FF#X\	4r	.
8F#X\L	4cc 4e-X 4A\	.
8c\J	.	.
4f#X\	4cc 4e- 4A\	.
!!LO:PB:g=original
=92||	=92||	=92||
*clefF4	*clefG2	*
*k[]	*k[]	*
!	!LO:TX:t=P:problem:w źródle przy zmianie tonacji brak znaków	!
4E 4GG\	4r	f
8G'\L	4cc 4g 4e 4c\	.
8c'\J	.	.
4e\	4cc 4g\	.
=93	=93	=93
4GG\	4b 4gM</	.
4B 4D\	8f'/L	.
.	8d'/J	.
4f 4B\	4G/	.
=94	=94	=94
4GG\	4r	.
8G'\L	4b 4g 4B/	.
8B'\J	.	.
4f\	4b 4g/	.
=95	=95	=95
4E 4CC/	4cc 4gM</	.
4c 4G\	8e'/L	.
.	8c'/J	.
4e 4c\	4G/	.
=96	=96	=96
4C\	4r	.
8G'\L	4ee 4cc 4e\	.
8c'\J	.	.
4g\	4ee 4cc\	.
=97	=97	=97
4DD\	4dd 4ccM\	.
4c 4F#X\	8a'\L	.
.	8d'\J	.
4f#X 4c\	4A/	.
=98	=98	=98
4GG\	4dd 4bm\	.
4B 4G\	8g'\L	.
.	8d'\J	.
4fn 4B\	4G/	.
=99	=99	=99
4E 4CC/	4cc 4gM\	.
4c 4G\	8e'/L	.
.	8c'/J	.
4e 4c\	4G/	.
!!LO:LB:g=original
=100	=100	=100
4E 4GG 4CC\	4r	pp
8G'\L	4cc 4g 4e 4c/	.
8c'\J	.	.
4e\	4cc 4g\	.
=101	=101	=101
4GG\	4b 4gM</	.
4B 4D\	8f'/L	.
.	8d'/J	.
4f 4B\	4G/	.
=102	=102	=102
4GG\	4r	.
8G'\L	4b 4g 4B/	.
8B'\J	.	.
4f\	4b 4g/	.
=103	=103	=103
4E 4CC\	4cc 4gM</	.
4c 4G\	8e'/L	.
.	8c'/J	.
4e 4c\	4G/	.
=104	=104	=104
4C\	4r	.
8G'\L	4ee 4cc 4e\	.
8c'\J	.	.
4g\	4ee 4cc\	.
=105	=105	=105
4DD\	4dd 4ccM\	.
4c 4F#X\	8a'\L	.
.	8d'\J	.
4f#X 4c\	4A/	.
=106	=106	=106
4GG\	4dd 4bm\	<
4B 4G\	8g'\L	.
.	8d'\J	.
4f 4B\	4G/	.
=107	=107	=107
2e 2G 2C\	2cc 2g 2c\	.
4r	4r	.
!!LO:LB:g=original
=108||	=108||	=108||
4G 4BB 4EE\	4ee 4b 4g 4e\	ff
8EEL 8EEE\	8E</L	.
8FF#X 8FFF#X\	8F#X</	.
8GG 8GGG\	8G</	.
8FF#J 8FFF#\	8F#</J	.
=109	=109	=109
4FF#X 4FFF#X\	4F<M</	.
4EE 4EEE\	4E</	.
4EE 4EEE\	4E</	.
=110	=110	=110
4A 4E 4AA\	4cc 4a 4e 4c\	.
8AAL 8AAA\	8A</L	.
8BB 8BBB\	8B</	.
8C 8CC\	8c</	.
8BBJ 8BBB\	8B</J	.
=111	=111	=111
4BB 4BBB\	4B<m</	.
4AA 4AAA\	4A</	.
4AA 4AAA\	4A</	.
=112	=112	=112
4BB 4BBB\	4B<^^/	.
.	16qqa#X/	.
4d#X 4A\	4b 4f#\	.
*clefG2	*	*
.	32qqaa#X/	.
4dd#X 4a\	4bb 4ff#\	.
*clefF4	*	*
=113	=113	=113
4BB 4BBB\	4B<^^/	.
.	16qqb/	.
4d#X 4F#\	4cc 4a\	.
*clefG2	*	*
.	32qqbb/	.
4dd#X 4f#\	4ccc 4aa\	.
*clefF4	*	*
=114	=114	=114
4BB 4BBB\	4B<^^/	.
.	16qqa#X/	.
4d#X 4F#\	4b 4an\	.
*clefG2	*	*
.	32qqaa#X/	.
4dd#X 4f#\	4bb 4aan\	.
!!LO:LB:g=original
=115	=115	=115
*	*8va	*
.	32qqaaa#X/	.
4ddd#X 4ff#\	4bbb 4aaan\	.
*	*X8va	*
.	16qqaa#X/	.
4dd#X 4f#\	4bb 4aan\	.
*clefF4	*	*
.	32qqa#X/	.
4d#X 4F#\	4b 4an\	.
=116	=116	=116
4G 4BB 4EE\	4ee 4b 4g 4e\	ff
8EEL 8EEE\	8E</L	.
8FF#X 8FFF#X\	8F#X</	.
8GG 8GGG\	8G</	.
8FF#J 8FFF#\	8F#</J	.
=117	=117	=117
4FF#X 4FFF#X\	4F#X<m</	.
4EE 4EEE\	4E</	.
4EE 4EEE\	4E</	.
=118	=118	=118
4A 4E 4AA\	4cc 4a 4e 4c\	.
8AAL 8AAA\	8A</L	.
8BB 8BBB\	8B</	.
8C 8CC\	8c</	.
8BBJ 8BBB\	8B</J	.
=119	=119	=119
4BB 4BBB\	4B<m</	.
4AA 4AAA\	4A</	.
4AA 4AAA\	4A</	.
=120	=120	=120
4BB 4BBB\	4B<^^/	.
.	32qqa#X/	.
4d#X 4F#\	4b 4an\	.
*clefG2	*	*
.	32qqaa#X/	.
4dd#X 4f#\	4bb 4aan\	.
*clefF4	*	*
=121	=121	=121
4BB 4BBB\	4B</	.
.	32qqb/	.
4d#X 4F#\	4cc 4a\	.
*clefG2	*	*
.	32qqaa/	.
4dd#X 4f#\	4ccc 4aa\	.
!!LO:LB:g=original
=122	=122	=122
*clefF4	*	*
4F#X 4BB\	4d#X^^ 4A\	.
*clefG2	*	*
*	*8va	*
4ddd#X 4bb\	4dddd#X 4aaa\	.
*clefF4	*	*
*	*X8va	*
4F# 4BB\	4d# 4A\	.
=123	=123	=123
*	*rscale:1/2	*
2G 2BB 2EE\	18e\LLL	.
.	18g\	.
.	18b\	.
.	18ee\	.
.	18gg\	.
.	18bb\	.
*	*8va	*
.	18eee\	.
.	18ggg\	.
.	18bbb\JJJ	.
*	*rscale:1	*
4r	4eeee\	.
*	*X8va	*
=124||	=124||	=124||
4E 4GG 4CC\	4r	p
8G'\L	4cc 4g 4e 4c\	.
8c'\J	.	.
4e\	4cc 4g\	.
=125	=125	=125
4GG\	(16B\LL	.
.	16b 16g\	.
.	16a\	.
.	16g\	.
4d 4F\	16b\	.
.	16bb 16gg\	.
.	16aa\	.
.	16gg\JJ)	.
4f 4B\	4ggg'\	.
=126	=126	=126
4GG\	4r	.
8G'\L	4b 4g 4B\	.
8B'\J	.	.
4f\	4b 4g\	.
=127	=127	=127
4E 4CC\	(16c\LL	.
.	16cc 16g\	.
.	16a\	.
.	16g\	.
4f 4G\	16cc\	.
.	16ccc 16gg\	.
.	16aa\	.
.	16gg\JJ)	.
4g 4e 4c\	4ggg\	.
!!LO:LB:g=original
=128	=128	=128
4C\	4r	.
8G'\L	4ee 4cc 4e\	.
8c'\J	.	.
4e\	4ee 4cc\	.
=129	=129	=129
4DD\	(16d\LL	.
.	16dd 16a\	.
.	16b\	.
.	16a\	.
4c 4F#X\	16dd\	.
.	16ddd 16aa\	.
.	16bb\	.
.	16aa\JJ	.
4f#X 4c\	4aaa\)	.
=130	=130	=130
4GG\	(16d\LL	.
.	16dd 16g\	.
.	16a\	.
.	16g\	.
4B 4Fn\	16dd\	.
.	16ddd 16gg\	.
.	16aa\	.
.	16gg\JJ	.
4fn 4B\	4ggg\)	.
=131	=131	=131
4E 4CC/	(16c\LL	.
.	16cc 16g\	.
.	16a\	.
.	16g\	.
4c 4E\	16cc\	.
.	16ccc 16gg\	.
.	16aa\	.
.	16gg\JJ	.
4g 4e 4c\	4ggg\)	.
=132	=132	=132
4E 4GG 4CC\	4r	.
8G'\L	4cc 4g 4e 4c\	.
8c'\J	.	.
4e\	4cc 4g\	.
=133	=133	=133
4GG\	(16B\LL	.
.	16b 16g\	.
.	16a\	.
.	16g\	.
4d 4F\	16b\	.
.	16bb 16gg\	.
.	16aa\	.
.	16gg\JJ	.
4f 4B 4G\	4ggg\)	.
!!LO:LB:g=original
=134	=134	=134
4GG\	4r	.
8G'\L	4b 4g 4B\	.
8B'\J	.	.
4f\	4b 4g\	.
=135	=135	=135
4E 4CC\	(16c\LL	.
.	16cc 16g\	.
.	16a\	.
.	16g\	.
4e 4G\	16cc\	.
.	16ccc 16gg\	.
.	16aa\	.
.	16gg\JJ	.
4g 4e 4c\	4ggg\)	.
=136	=136	=136
4C\	4r	.
8G'\L	4ee 4cc 4e\	.
8c'\J	.	.
4g\	4ee 4cc\	.
=137	=137	=137
4D 4DD\	(16d\LL	.
.	16dd 16a\	.
.	16b\	.
.	16a\	.
4c 4F#X\	16dd\	.
.	16ddd 16aa\	.
.	16bb\	.
.	16aa\JJ	.
4f#X 4c\	4aaa\)	.
=138	=138	=138
4GG\	(16d\LL	.
.	16dd 16g\	.
.	16a\	.
.	16g\	.
4B 4Fn\	16dd\	.
.	16ddd 16gg\	.
.	16aa\	.
.	16gg\JJ	.
4fn 4B\	4ggg\)	.
=139	=139	=139
4GG\	(16g\LL	.
.	16gg 16dd\	.
.	16ee\	.
.	16dd\	.
4f 4B\	16gg\	.
.	16ggg 16ddd\	.
.	16eee\	.
.	16ddd\JJ	.
*	*8va	*
4b 4f\	4gggg\)	.
*	*X8va	*
!!LO:PB:g=original
=140	=140	=140
*	*8va	*
4E 4GG 4CC\	16cccc\LL	ff
.	16ggg\	.
!	!LO:TX:b:i:t=con bravura.	!
.	16aaa\	.
.	16ggg\	.
*	*X8va	*
!	!LO:TX:a:t=loco	!
4g 4c 4E\	16ccc\	.
.	16gg\	.
.	16aa\	.
.	16gg\	.
4r	16cc\	.
.	16g\	.
.	16a\	.
.	16g\JJ	.
=141	=141	=141
4A-X 4E-X 4AA-X\	16c\LL	.
.	16f#X\	.
.	16a-X\	.
.	16f#\	.
4f#X 4c 4E-\	16cc\	.
.	16ff#X\	.
.	16aa-X\	.
.	16ff#\	.
*	*8va	*
4r	16ccc\	.
.	16fff#\	.
.	16aaa-\	.
.	16fff#\JJ	.
=142	=142	=142
4E 4GG\	16cccc\LL	.
.	16ggg\	.
.	16aaa\	.
.	16ggg\	.
*	*X8va	*
4g 4c 4E\	16ccc\	.
.	16gg\	.
.	16aa\	.
.	16gg\	.
4r	16cc\	.
.	16g\	.
.	16a\	.
.	16g\JJ	.
=143	=143	=143
4A-X 4E-X 4AA-X\	16c\LL	.
.	16f#X\	.
.	16a-X\	.
.	16f#\	.
4f#X 4c 4E-\	16cc\	.
.	16ff#X\	.
.	16aa-X\	.
.	16ff#\	.
*	*8va	*
4r	16ccc\	.
.	16fff#\	.
.	16aaa-\	.
.	16fff#\JJ	.
=144	=144	=144
4c: 4E: 4GG:\	16cccc\LL	.
.	16ggg\	.
.	16aaa\	.
.	16ddd\	.
*	*X8va	*
4r	16ccc\	.
.	16gg\	.
.	16aa\	.
.	16dd\	.
4r	16cc\	.
.	16g\	.
.	16a\	.
.	16d\JJ	.
!!LO:LB:g=original
=145	=145	=145
!	!LO:TX:a:t=md	!
2.ryy	16c</LL	.
.	16G</	.
.	16A</	.
.	16D</	.
.	16C</	.
.	16GG</	.
.	16AA</	.
.	16DD</	.
.	16CC</	.
.	16GGG</	.
.	16AAA</	.
.	16DDD</JJ	.
=146	=146	=146
4CCC\	2.ryy	.
!LO:TX:b:t=ms.	!	!
4r	.	.
4r	.	.
=147	=147	=147
4g 4c 4G 4E 4C\	4eee 4ccc 4gg 4cc\	.
4r	4r	.
4r	4r	.
=148	=148	=148
32qqGG 32qqCC\	32qqc< 32qqG< 32qqE< 32qqC</	.
!	!LO:TX:b:i:t=Fine.	!
2.GG 2.CC\	2.c< 2.G< 2.E< 2.C</	.
==	==	==
*-	*-	*-
!!!system-decoration: {(s1,s2)}
!!!RDF**kern: > = above
!!!RDF**kern: < = below
!!!RDF**kern: | = vertical stroke
!!!RDF**dynam: p = "p."
!!!RDF**dynam: pp = "pp."
!!!RDF**dynam: f ="f."
!!!RDF**dynam: mf = "mf."
!!!RDF**dynam: ff = "ff."
!!!ENC: Marta Lawrence
!!!END: 2021-05-22
!!!ENC: Anastazja Marusiak
!!!END: 2021-05-07
